**kern	**text
*clefG2	*
*k[f#c#]	*
*M4/4	*
*MM170	*
=1	=1
1r	.
=2	=2
1r	.
=3	=3
1r	.
=4	=4
1r	.
=5	=5
1r	.
=6	=6
1r	.
=7	=7
1r	.
=8	=8
1r	.
=9	=9
1r	.
=10	=10
4r	.
[4f#	ら
8f#L]	.
8eJ	ら
4d	ら
=11	=11
4d	ら
4e	ら
4d	ら
[4d	ら
=12	=12
4d]	.
[4f#	ら
8f#L]	.
8eJ	ら
4d	ら
=13	=13
4d	ら
4e	ら
4a	ら
[4f#	ら
=14	=14
4f#]	.
[4f#	ら
8f#L]	.
8eJ	ら
4d	ら
=15	=15
4d	ら
4e	ら
4d	ら
4d	ら
=16	=16
*^	*
4r	8dL	.
.	8eJ	ら
[2.fn	4r	ら
.	2r	.
=17	=17	=17
4f]	[1g	あ
4r	.	.
2r	.	.
=18	=18	=18
1r	4g]	.
.	4r	.
.	4e	あ
.	4e	さ
*v	*v	*
=19	=19
8dL	め
8d	が
8e	さ
8dJ	め
4A	て
4r	.
=20	=20
4A'	ま
4A	あ
8dL	さ
8eJ	き
4e	に
=21	=21
4d	お
4e	も
4f#	い
4g'	う
=22	=22
*^	*
2r	4e	.
.	4f#	ぶ
[2e	2r	き
=23	=23	=23
4e]	2.d	み
4r	.	.
4r	.	.
[4c#	4r	の
=24	=24	=24
4c#]	4A	こ
4r	[2.A	.
2r	.	.
=25	=25	=25
1r	4A]	.
.	4r	.
.	2r	.
*v	*v	*
=26	=26
2r	.
4e	お
4e	も
=27	=27
4f#	い
4g	き
4d	て
4r	.
=28	=28
4A	ま
4A	え
8dL	が
8eJ	み
4e'	お
=29	=29
4d'	き
4e	た
4e	ど
4g	し
=30	=30
*^	*
4r	4e	.
4f#	8r	の
.	[8c#	て
2r	4c#] [4e	.
.	4e_	.
=31	=31	=31
2r	4e]	.
.	[4d	か
4r	8dL]	.
.	8c#J	れ
[4c#	4r	た
=32	=32	=32
4c#]	4A	く
4r	[2.A	.
2r	.	.
=33	=33	=33
1r	4A]	.
.	4r	.
.	2r	.
*v	*v	*
=34	=34
4c#	ぴ
4d	ん
4A	く
4e	の
=35	=35
4A	す
4f#	か
4d	あ
4g'	と
=36	=36
8gL	お
8f#J	は
4f#	な
4e	の
4e	か
=37	=37
4f#	み
[4f#	か
8f#L]	.
8eJ	ざ
4e'	り
=38	=38
4A	さ
4d	し
4c#	て
4e	で
=39	=39
4d	か
[4g	け
8gL]	.
8f#J	る
4f#	の
=40	=40
8f#L	きょ
8eJ	お
2.d	の
=41	=41
4r	.
4g	わ
4f#	た
4g	し
=42	=42
*^	*
4r	4a	.
2dd	4r	か
.	[2cc#	わ
4r	.	.
=43	=43	=43
1r	4cc#]	.
.	4dd	い
.	4cc#	い
.	4dd	の
*v	*v	*
=44	=44
4ee	よ
[4ff#	め
8ff#L]	.
8ddJ	る
4dd'	と
=45	=45
4a	と
4gg	け
4ff#	て
4ee	し
=46	=46
4dd	ま
4ee	い
[2ff#	そ
=47	=47
4ff#]	.
4r	.
4a	す
4dd	き
=48	=48
4cc#	だ
[4dd	な
8ddL]	.
8aJ	ん
4a'	て
=49	=49
4a	ぜ
4ee	た
8ddL	い
8ddJ	に
4r	.
=50	=50
*^	*
4r	4a	.
2dd	4r	え
.	[2ee	な
4r	.	.
=51	=51	=51
1r	4ee]	.
.	4dd	い
.	4cc#	だ
.	4dd	け
*v	*v	*
=52	=52
4ee	ど
[4ff#	め
8ff#L]	.
8ddJ	る
4dd'	と
=53	=53
4a	め
4gg	お
4ff#	あ
4ee	わ
=54	=54
*^	*
4dd	4r	せ
8r	4ee	.
8ff#	.	れ
2ff#	2r	な
*v	*v	*
=55	=55
4ff#	い
4r	.
4a	こ
4dd	い
=56	=56
4ee	に
4ff#	こ
12dd	い
6.dd	な
6dd	ん
=57	=57
*^	*
4r	8aL	.
.	8aJ	し
4ee	8r	な
.	8dd	い
2r	2dd	.
=58	=58	=58
4cc#	4r	わ
4r	2cc#	.
[2dd	.	し
.	4r	.
*v	*v	*
=59	=59
4dd]	.
4r	.
2r	.
=60	=60
2cc#	だ
8r	.
4.dd	て
=61	=61
4ee	き
[4ff#	み
8ff#]	.
4.dd	の
=62	=62
*^	*
4r	4cc#	.
2cc#	4r	と
.	[2dd	が
4r	.	.
=63	=63	=63
1r	4dd]	.
.	4r	.
.	8r	.
.	8dL	す
.	8g	き
.	8f#J	な
*v	*v	*
=64	=64
4d	の
[4f#	ら
8f#L]	.
8eJ	ら
4d	ら
=65	=65
4d	ら
4e	ら
4d	ら
[4d	ら
=66	=66
4d]	.
[4f#	ら
8f#L]	.
8eJ	ら
4d	ら
=67	=67
4d	ら
4e	ら
4a	ら
[4f#	ら
=68	=68
4f#]	.
[4f#	ら
8f#L]	.
8eJ	ら
4d	ら
=69	=69
4d	ら
4e	ら
4d	ら
4d	ら
=70	=70
*^	*
4r	8dL	.
.	8eJ	ら
[2.fn	4r	ら
.	2r	.
=71	=71	=71
4f]	[1g	あ
4r	.	.
2r	.	.
=72	=72	=72
1r	4g]	.
.	4r	.
.	4e	て
.	4e	ん
*v	*v	*
=73	=73
8dL	き
8d	よ
8e	ほ
8dJ	お
4A	が
4r	.
*clefF4	*
=74	=74
8AL	う
8AJ	そ
4A	お
8dL	つ
8eJ	い
*clefG2	*
4e	た
=75	=75
4d	ど
4e	しゃ
4f#	ぶ
4g	り
=76	=76
*^	*
4r	4e	.
2f#	4r	あ
.	[2e	め
4r	.	.
=77	=77	=77
2.d	4e]	が
.	4r	.
.	[2c#	ふ
4r	.	.
=78	=78	=78
1r	[4A 4c#]	.
.	2.A_	.
=79	=79	=79
1r	4A]	.
.	4r	.
.	2r	.
*v	*v	*
=80	=80
4r	.
8r	.
8A	か
8eL	ば
8eJ	ん
4e	に
=81	=81
8eL	れ
8f#	た
8e	ま
8dJ	ま
4A'	の
4r	.
*clefF4	*
=82	=82
8AL	お
8A	り
8A	た
8AJ	た
8dL	み
*clefG2	*
8eJ	か
4e	さ
=83	=83
4d	う
4e	れ
4e	し
4g	く
=84	=84
*^	*
4r	4e	.
4f#	8r	い
.	[8c#	た
[2e	4c#]	め
.	4r	.
=85	=85	=85
4e]	8r	.
.	16r	.
.	16d	い
4r	[4d	.
4r	8dL]	.
.	8c#J	お
[4c#	4r	つ
=86	=86	=86
4c#]	4A	い
4r	2A	.
2r	.	.
.	4B	そ
*v	*v	*
=87	=87
4d	ん
[4d	な
8dL]	.
8dJ	と
4c#'	き
=88	=88
4c#	しょ
4d	お
4A	が
4e	な
=89	=89
4A	い
4f#	か
4d	ら
4g	は
=90	=90
4f#	い
4r	.
4e	て
4e	や
=91	=91
4f#	る
[4f#	な
8f#L]	.
8f#J	ん
4e'	て
=92	=92
4A	と
4d	な
4c#	り
4e	に
=93	=93
4d	い
[4g	る
8gL]	.
8f#	き
8f#	み
8gJ	が
=94	=94
8f#L	わ
8eJ	ら
2.d	う
=95	=95
4r	.
4g	こ
4f#	い
4g	に
=96	=96
4a	お
2dd	ち
4cc#	る
=97	=97
4a	お
4dd	と
4cc#	が
4dd	し
=98	=98
4ee	た
[4ff#	め
8ff#L]	.
8ddJ	る
4dd'	と
=99	=99
4a	い
4gg	き
4ff#	が
4ee	つ
=100	=100
4dd	ま
4ee	り
[2ff#	そ
=101	=101
4ff#]	.
4r	.
4a	き
4dd	み
=102	=102
8cc#L	に
8cc#J	ふ
4dd	れ
8aL	て
8aJ	る
4r	.
=103	=103
4a	み
4ee	ぎ
8ddL	て
8ddJ	が
4r	.
=104	=104
*^	*
4r	4a	.
2dd	4r	る
.	[2ee	え
4r	.	.
=105	=105	=105
1r	4ee]	.
.	4dd	る
.	4cc#	た
.	4dd	か
*v	*v	*
=106	=106
4ee	な
[4ff#	る
8ff#L]	.
8ddJ	む
4dd'	ね
=107	=107
4a	は
4gg	ん
4ff#	ぶ
4ee	ん
=108	=108
*^	*
4r	4dd	.
4ee	8r	の
.	8ff#	か
2r	[2ff#	.
=109	=109	=109
1r	4ff#]	.
.	4r	.
.	4a	て
.	4dd	お
*v	*v	*
=110	=110
4ee	の
4ff#	ば
8dd	せ
4.dd	ば
=111	=111
8aL	と
8a	ど
8ee	く
8ddJ	きょ
2dd	り
=112	=112
*^	*
4r	2cc#	.
8r	.	.
8dd	.	し
[2dd	2r	よ
*v	*v	*
=113	=113
2dd]	.
2r	.
=114	=114
4cc#	お
4cc#	も
8dd	い
4.dd	よ
=115	=115
4ee	と
[4ff#	ど
8ff#]	.
4.dd	け
=116	=116
*^	*
4r	4cc#	.
2cc#	4r	み
.	[2dd	に
4r	.	.
=117	=117	=117
1r	4dd]	.
.	4r	.
.	4r	.
.	8f#L	お
.	8gJ	ね
=118	=118	=118
4r	8aL	.
.	8bJ	い
2cc#	4r	じ
.	[2dd	か
4r	.	.
=119	=119	=119
1r	4dd]	.
.	4dd	ん
.	4cc#	お
.	4b	と
*v	*v	*
=120	=120
4a	め
4a	て
4r	.
4d	な
=121	=121
4e	き
[4g	そ
8gL]	.
8f#J	な
4d	の
=122	=122
*^	*
4e	4r	で
4r	2f#	.
[2a	.	う
.	4r	.
*v	*v	*
=123	=123
4a] [4ee	れ
2ee]	.
4dd	し
=124	=124
4dd	く
2ee	て
4r	.
=125	=125
8aL	し
8aJ	ん
4ee	で
12ff#L	し
12eeJ	ま
6dd	う
[6dd	わ
=126	=126
4dd]	.
4r	.
2r	.
=127	=127
1r	.
=128	=128
1r	.
=129	=129
1r	.
=130	=130
1r	.
=131	=131
1r	.
=132	=132
1r	.
=133	=133
1r	.
=134	=134
1r	.
=135	=135
1r	.
=136	=136
1r	.
=137	=137
1r	.
=138	=138
1r	.
=139	=139
1r	.
=140	=140
1r	.
=141	=141
1r	.
=142	=142
4r	.
[4f#	ら
8f#L]	.
8eJ	ら
4d	ら
=143	=143
4d	ら
4e	ら
4d	ら
[4d	ら
=144	=144
4d]	.
[4f#	ら
8f#L]	.
8eJ	ら
4d	ら
=145	=145
4d	ら
4e	ら
4a	ら
[4f#	ら
=146	=146
4f#]	.
[4f#	ら
8f#L]	.
8eJ	ら
4d	ら
=147	=147
4d	ら
4e	ら
4d	ら
4d	ら
=148	=148
8dL	ら
8eJ	ら
[2.fn	ら
=149	=149
4f]	.
2.g	あ
=150	=150
4r	.
[4ff#	め
8ff#L]	.
8ddJ	る
4dd	と
=151	=151
4a	え
4gg	き
4ff#	お
4ee	つ
=152	=152
*^	*
4r	4dd	.
4ee	8r	て
.	8ff#	し
2r	[2ff#	.
=153	=153	=153
1r	4ff#]	.
.	4ff#'	う
.	4a	も
.	4dd	お
*v	*v	*
=154	=154
4cc#	あ
4dd	え
8aL	な
8aJ	い
4r	.
=155	=155
*^	*
4r	4a	.
4ee	8r	か
.	[8ff#	く
2r	[4dd 4ff#]	.
.	4dd]	.
=156	=156	=156
4r	4a	.
2dd	4r	お
.	[2ee	い
4r	.	.
=157	=157	=157
1r	4ee]	.
.	4cc#	よ
.	4cc#	だ
.	4dd	か
*v	*v	*
=158	=158
4ee	ら
[4ff#	め
8ff#L]	.
8ddJ	る
4dd'	と
=159	=159
4a	て
4gg	お
6ff#	つ
6gg	な
6gg	い
=160	=160
*^	*
8aaL	4r	で
8eeJ	.	あ
8r	4ee	.
[8aa	.	き
[4ff# 4aa]	2r	た
4ff#_	.	.
*v	*v	*
=161	=161
4ff#]	.
4ff#'	い
4a	も
4dd	お
=162	=162
*^	*
4r	4ee	.
4ff#	8r	い
.	8dd	ば
2r	2dd	.
=163	=163	=163
4r	4a	.
4ee	8r	な
.	[8ff#	く
2r	[4dd 4ff#]	.
.	4dd]	.
=164	=164	=164
8cc#L	4r	い
8cc#J	.	け
8r	4cc#	.
8dd	.	い
[2dd	2r	の
*v	*v	*
=165	=165
2dd]	.
2r	.
=166	=166
4cc#	い
4cc#	ま
8dd	す
4.dd	ぐ
=167	=167
4ee	わ
4ff#	た
8ddL	し
8ddJ	お
4r	.
=168	=168
*^	*
4r	8cc#L	.
.	8cc#J	き
4cc#	8r	し
.	[8dd	め
2r	4dd] [4ee	.
.	4ee_	.
=169	=169	=169
1r	2ee]	.
.	8r	.
.	8dL	な
.	8g	ん
.	8f#J	て
*v	*v	*
=170	=170
4d'	ね
[4f#	ら
8f#L]	.
8eJ	ら
4d	ら
=171	=171
4d	ら
4e	ら
4d	ら
[4d	ら
=172	=172
4d]	.
[4f#	ら
8f#L]	.
8eJ	ら
4d	ら
=173	=173
4d	ら
4e	ら
4a	ら
[4f#	ら
=174	=174
4f#]	.
[4f#	ら
8f#L]	.
8eJ	ら
4d	ら
=175	=175
4d	ら
4e	ら
4d	ら
4d	ら
=176	=176
8dL	ら
8eJ	ら
[2.fn	ら
=177	=177
2f]	.
[2g	あ
=178	=178
1g_	.
=179	=179
2.g]	.
4r	.
==	==
*-	*-
